images/Logo5.svg

<svg width="104" height="56" viewBox="0 0 104 56" fill="none" xmlns="http://www.w3.org/2000/svg">
<path d="M53.5293 27.4433C53.0853 26.8524 52.8729 26.1542 52.9233 25.4513V22.5632C52.9233 21.6779 53.1242 21.0051 53.5259 20.5448C53.9277 20.0845 54.6177 19.8554 55.596 19.8573C56.5153 19.8573 57.1679 20.0532 57.5537 20.4449C57.9746 20.9447 58.1794 21.556 58.1325 22.1725V22.8512H56.488V22.1637C56.4939 21.9386 56.4779 21.7136 56.4404 21.4909C56.4167 21.3386 56.3339 21.1977 56.2055 21.0913C56.0366 20.9766 55.8239 20.921 55.6096 20.9356C55.3843 20.9211 55.1609 20.9797 54.9832 21.1001C54.8399 21.218 54.7444 21.3725 54.7108 21.5408C54.6636 21.7765 54.642 22.0155 54.6461 22.2547V25.7598C54.6202 26.0979 54.6927 26.4363 54.8572 26.744C54.939 26.8482 55.0526 26.9307 55.1854 26.9826C55.3182 27.0344 55.465 27.0536 55.6096 27.0378C55.8203 27.0528 56.0293 26.9958 56.1918 26.8792C56.3258 26.7644 56.412 26.6147 56.437 26.4532C56.4754 26.2206 56.4925 25.9858 56.488 25.751V25.04H58.1325V25.6893C58.1787 26.3319 57.9789 26.9699 57.5639 27.505C57.186 27.9339 56.5425 28.1484 55.596 28.1484C54.6495 28.1484 53.9345 27.9193 53.5293 27.4433Z" fill="#8E8F99"/>
<path d="M60.3763 27.4727C59.961 27.0232 59.7533 26.368 59.7533 25.5013V22.4633C59.7533 21.6054 59.961 20.9561 60.3763 20.5154C60.7917 20.0747 61.4863 19.8554 62.46 19.8573C63.4269 19.8573 64.1181 20.0767 64.5334 20.5154C64.9488 20.9561 65.1599 21.6054 65.1599 22.4633V25.5013C65.1599 26.3592 64.9488 27.0173 64.5266 27.4697C64.1044 27.9222 63.4167 28.1484 62.46 28.1484C61.5033 28.1484 60.7951 27.9193 60.3763 27.4727ZM63.226 26.744C63.3748 26.4625 63.4425 26.154 63.4235 25.845V22.1255C63.4426 21.8224 63.376 21.5199 63.2294 21.2441C63.146 21.1377 63.0296 21.0538 62.8936 21.0019C62.7575 20.9499 62.6073 20.932 62.46 20.9503C62.3123 20.9325 62.1617 20.9506 62.0252 21.0025C61.8887 21.0544 61.7717 21.138 61.6871 21.2441C61.5374 21.5191 61.4695 21.8221 61.4897 22.1255V25.8626C61.469 26.1718 61.5368 26.4805 61.6871 26.7617C61.783 26.8564 61.9013 26.9324 62.034 26.9845C62.1667 27.0365 62.3108 27.0634 62.4566 27.0634C62.6024 27.0634 62.7465 27.0365 62.8792 26.9845C63.0119 26.9324 63.1302 26.8564 63.226 26.7617V26.744Z" fill="#8E8F99"/>
<path d="M67.1378 19.946H68.9083L70.2395 25.5512L71.6014 19.946H73.3242L73.4978 28.0365H72.2244L72.0883 22.4137L70.774 28.0365H69.7526L68.3907 22.3931L68.2648 28.0365H66.9778L67.1378 19.946Z" fill="#8E8F99"/>
<path d="M75.4829 19.946H78.2406C79.8295 19.946 80.6239 20.7118 80.6239 22.2433C80.6239 23.7102 79.7875 24.4427 78.1147 24.4407H77.175V28.0365H75.4727L75.4829 19.946ZM77.8389 23.4037C78.0071 23.4221 78.1779 23.4088 78.3396 23.3647C78.5012 23.3206 78.6499 23.2467 78.7752 23.1481C78.9704 22.8749 79.0565 22.554 79.0203 22.2345C79.0292 21.9877 79.0018 21.7409 78.9386 21.5001C78.9143 21.4196 78.8717 21.3442 78.8133 21.2781C78.7548 21.212 78.6817 21.1567 78.5981 21.1152C78.3618 21.0174 78.1006 20.973 77.8389 20.986H77.1784V23.4037H77.8389Z" fill="#8E8F99"/>
<path d="M83.0787 19.946H84.907L86.783 28.0365H85.1964L84.8253 26.171H83.1945L82.8132 28.0365H81.2028L83.0787 19.946ZM84.6415 25.2339L84.0048 21.8379L83.3681 25.2339H84.6415Z" fill="#8E8F99"/>
<path d="M88.2981 19.946H89.4897L91.7709 24.5612V19.946H93.1838V28.0365H92.0501L89.7553 23.2186V28.0365H88.2947L88.2981 19.946Z" fill="#8E8F99"/>
<path d="M96.4932 24.9516L94.5968 19.9573H96.1936L97.3512 23.1654L98.4373 19.9573H100L98.1274 24.9516V28.0363H96.4932V24.9516Z" fill="#8E8F99"/>
<path d="M56.1579 31.5736V31.9967H54.7688V35.2842H54.1866V31.9967H52.7906V31.5736H56.1579Z" fill="#8E8F99"/>
<path d="M60.5123 35.2844H60.0629C60.0173 35.2869 59.9722 35.2743 59.9369 35.2492C59.9029 35.2277 59.8769 35.1981 59.862 35.164L59.4603 34.2827H57.5332L57.1314 35.164C57.12 35.2009 57.0991 35.235 57.0702 35.2639C57.0345 35.2885 56.9897 35.301 56.9442 35.2991H56.4948L58.1971 31.5887H58.7895L60.5123 35.2844ZM57.6932 33.9066H59.3003L58.6193 32.3966C58.5691 32.2824 58.527 32.1657 58.4933 32.047C58.4695 32.1175 58.4491 32.1851 58.4286 32.2439L58.3674 32.3996L57.6932 33.9066Z" fill="#8E8F99"/>
<path d="M63.4472 34.9202C63.5538 34.925 63.6606 34.925 63.7672 34.9202C63.8593 34.912 63.9504 34.8972 64.0396 34.8761C64.123 34.8584 64.2049 34.8359 64.2848 34.8085C64.3597 34.7821 64.4346 34.7498 64.5129 34.7174V33.883H63.8319C63.8151 33.8838 63.7982 33.8816 63.7824 33.8766C63.7666 33.8715 63.7522 33.8637 63.74 33.8536C63.7288 33.8453 63.72 33.8349 63.7141 33.8232C63.7082 33.8115 63.7054 33.7988 63.706 33.786V33.501H65.027V34.9231C64.9192 34.9897 64.8053 35.0486 64.6865 35.0994C64.5651 35.1511 64.4386 35.1934 64.3086 35.2257C64.1694 35.2611 64.027 35.2866 63.883 35.3021C63.7179 35.3179 63.552 35.3258 63.3859 35.3256C63.0923 35.3278 62.8009 35.2809 62.5279 35.1875C62.273 35.0991 62.0414 34.9672 61.847 34.7997C61.6574 34.6305 61.5082 34.4309 61.4078 34.2121C61.3005 33.9661 61.2474 33.705 61.2512 33.4423C61.2476 33.1778 61.2995 32.9151 61.4044 32.6666C61.5023 32.4467 61.6518 32.2466 61.8436 32.079C62.0379 31.912 62.2696 31.7811 62.5245 31.6941C62.8161 31.5994 63.1255 31.5526 63.437 31.556C63.5955 31.5558 63.7537 31.5666 63.9102 31.5883C64.0486 31.6077 64.1844 31.6392 64.3154 31.6823C64.4345 31.7209 64.5486 31.7701 64.6559 31.8292C64.7602 31.8872 64.8593 31.952 64.9521 32.0231L64.7887 32.2523C64.7759 32.2732 64.7568 32.2908 64.7334 32.3032C64.7101 32.3156 64.6833 32.3224 64.6559 32.3228C64.6182 32.3218 64.5816 32.3116 64.5503 32.2934C64.4993 32.2699 64.4448 32.2406 64.3835 32.2053C64.3111 32.1661 64.2348 32.1327 64.1554 32.1054C64.0539 32.0703 63.9491 32.0427 63.8421 32.0231C63.6995 32.0005 63.5547 31.9896 63.4097 31.9908C63.1851 31.9887 62.9621 32.0236 62.7526 32.0936C62.5632 32.1592 62.3924 32.2595 62.2522 32.3875C62.1111 32.5209 62.0033 32.6779 61.9355 32.8488C61.7834 33.2506 61.7834 33.6838 61.9355 34.0857C62.01 34.2602 62.126 34.4194 62.276 34.5529C62.4156 34.6802 62.5851 34.7804 62.7731 34.8467C62.9896 34.9108 63.219 34.9359 63.4472 34.9202V34.9202Z" fill="#8E8F99"/>
<path d="M68.8744 34.8611H70.7334V35.2842H68.3058V31.5736H68.888L68.8744 34.8611Z" fill="#8E8F99"/>
<path d="M72.6672 35.2842H72.085V31.5736H72.6672V35.2842Z" fill="#8E8F99"/>
<path d="M74.8325 31.5913C74.8671 31.6083 74.8973 31.6313 74.9211 31.6589L77.4098 34.4559C77.4065 34.4119 77.4065 34.3677 77.4098 34.3237C77.4098 34.2826 77.4098 34.2414 77.4098 34.2032V31.559H77.9171V35.2845H77.6243C77.581 35.2875 77.5374 35.2804 77.4984 35.2639C77.463 35.2454 77.4319 35.2215 77.4064 35.1934L74.9211 32.3993C74.9211 32.4433 74.9211 32.4845 74.9211 32.5256C74.9211 32.5667 74.9211 32.6049 74.9211 32.6402V35.2845H74.4342V31.5737H74.7372C74.7701 31.5737 74.8025 31.5797 74.8325 31.5913V31.5913Z" fill="#8E8F99"/>
<path d="M82.2037 31.5736V31.982H80.1405V33.2071H81.8122V33.6008H80.1405V34.8671H82.2037V35.2754H79.5413V31.5736H82.2037Z" fill="#8E8F99"/>
<path d="M21.1952 8.65871L47.047 14.9927V37.1883L21.1952 30.8572V8.65871ZM19.5371 6.76672V31.9354L48.7017 39.0832V13.9175L19.5371 6.76672Z" fill="#8E8F99"/>
<path d="M35.168 50.7667L6 43.6129V18.4469L35.168 25.5977V50.7667Z" fill="#8E8F99"/>
<path d="M20.0205 8.37371L45.5352 14.6283L34.6845 23.9941L9.16636 17.7365L20.0205 8.37371ZM19.537 6.76672L6 18.4475L35.168 25.5981L48.7016 13.9174L19.537 6.76672Z" fill="#8E8F99"/>
<path d="M36.8091 49.3509L48.7016 39.0863L36.8091 36.1691V49.3509Z" fill="#8E8F99"/>
</svg>

<svg width="104" height="56" fill="none" xmlns="http://www.w3.org/2000/svg"><path d="M53.53 27.443a2.953 2.953 0 0 1-.607-1.992v-2.888c0-.885.201-1.558.603-2.018.402-.46 1.092-.69 2.07-.688.92 0 1.572.196 1.958.588.42.5.625 1.111.578 1.727v.68h-1.644v-.688c.006-.225-.01-.45-.048-.673a.652.652 0 0 0-.234-.4.951.951 0 0 0-.596-.155 1.007 1.007 0 0 0-.627.164.769.769 0 0 0-.272.44 3.342 3.342 0 0 0-.065.715v3.505a1.79 1.79 0 0 0 .211.984.772.772 0 0 0 .328.239c.133.051.28.07.425.055.21.015.42-.042.582-.159a.706.706 0 0 0 .245-.426c.038-.232.056-.467.051-.702v-.711h1.645v.65a2.643 2.643 0 0 1-.57 1.815c-.377.429-1.02.643-1.967.643-.946 0-1.661-.229-2.067-.705ZM60.376 27.473c-.415-.45-.623-1.105-.623-1.972v-3.038c0-.858.208-1.507.623-1.948.416-.44 1.11-.66 2.084-.658.967 0 1.658.22 2.073.658.416.441.627 1.09.627 1.948v3.038c0 .858-.211 1.516-.633 1.969-.423.452-1.11.678-2.067.678-.957 0-1.665-.229-2.084-.675Zm2.85-.729c.149-.282.217-.59.197-.899v-3.72a1.65 1.65 0 0 0-.194-.88.776.776 0 0 0-.335-.243.907.907 0 0 0-.434-.052.92.92 0 0 0-.435.053.789.789 0 0 0-.338.241c-.15.275-.218.578-.197.881v3.738c-.021.309.047.617.197.899.096.094.214.17.347.223a1.161 1.161 0 0 0 .845 0c.133-.053.251-.129.347-.223v-.018ZM67.138 19.946h1.77l1.332 5.605 1.361-5.605h1.723l.174 8.09h-1.274l-.136-5.622-1.314 5.622h-1.021l-1.362-5.643-.126 5.643h-1.287l.16-8.09ZM75.483 19.946h2.758c1.588 0 2.383.766 2.383 2.297 0 1.467-.837 2.2-2.51 2.198h-.939v3.596h-1.702l.01-8.091Zm2.356 3.458c.168.018.339.005.5-.04.162-.043.31-.117.436-.216a1.31 1.31 0 0 0 .245-.913 2.53 2.53 0 0 0-.081-.735.596.596 0 0 0-.126-.222.705.705 0 0 0-.215-.163 1.763 1.763 0 0 0-.76-.129h-.66v2.418h.66ZM83.079 19.946h1.828l1.876 8.09h-1.587l-.37-1.865h-1.631l-.382 1.866h-1.61l1.876-8.091Zm1.563 5.288-.637-3.396-.637 3.396h1.273ZM88.298 19.946h1.192l2.28 4.615v-4.615h1.414v8.09H92.05l-2.295-4.817v4.817h-1.46l.003-8.09ZM96.493 24.952l-1.896-4.995h1.597l1.157 3.208 1.086-3.208H100l-1.873 4.995v3.084h-1.634v-3.084ZM56.158 31.574v.423h-1.39v3.287h-.581v-3.287H52.79v-.423h3.367ZM60.512 35.284h-.45a.2.2 0 0 1-.125-.035.193.193 0 0 1-.075-.085l-.402-.881h-1.927l-.402.881a.243.243 0 0 1-.06.1.208.208 0 0 1-.127.035h-.45l1.703-3.71h.592l1.723 3.695Zm-2.819-1.377H59.3l-.68-1.51a2.703 2.703 0 0 1-.127-.35c-.024.07-.044.138-.064.197l-.062.156-.674 1.507ZM63.447 34.92c.107.005.214.005.32 0 .092-.008.183-.023.273-.044a2.1 2.1 0 0 0 .245-.067c.075-.027.15-.06.228-.092v-.834h-.681a.142.142 0 0 1-.05-.006.128.128 0 0 1-.042-.023.086.086 0 0 1-.026-.03.075.075 0 0 1-.008-.038v-.285h1.321v1.422a2.57 2.57 0 0 1-.718.303c-.14.035-.282.06-.426.076a5.153 5.153 0 0 1-.497.024 2.596 2.596 0 0 1-.858-.139 2.092 2.092 0 0 1-.681-.387 1.792 1.792 0 0 1-.44-.588 1.854 1.854 0 0 1-.156-.77 1.923 1.923 0 0 1 .153-.775c.098-.22.248-.42.44-.588.194-.167.426-.298.68-.385.292-.095.602-.141.913-.138.159 0 .317.01.473.032.139.02.274.051.405.094.12.039.234.088.34.147.105.058.204.123.297.194l-.163.23a.143.143 0 0 1-.056.05.17.17 0 0 1-.077.02.222.222 0 0 1-.106-.03 2.103 2.103 0 0 1-.166-.088 1.51 1.51 0 0 0-.229-.1 2.137 2.137 0 0 0-.313-.082 2.625 2.625 0 0 0-.432-.032 2.018 2.018 0 0 0-.657.103 1.44 1.44 0 0 0-.5.294c-.142.133-.25.29-.318.46a1.733 1.733 0 0 0 0 1.238c.075.174.191.333.341.467.14.127.31.227.497.294.217.064.446.089.674.073ZM68.874 34.861h1.86v.423h-2.428v-3.71h.582l-.014 3.287ZM72.667 35.284h-.582v-3.71h.582v3.71ZM74.832 31.591a.28.28 0 0 1 .09.068l2.488 2.797a.884.884 0 0 1 0-.132v-2.765h.507v3.726h-.293a.276.276 0 0 1-.126-.021.33.33 0 0 1-.092-.07l-2.485-2.795v2.886h-.487v-3.711h.303c.033 0 .066.006.096.017ZM82.204 31.574v.408H80.14v1.225h1.671v.394h-1.671v1.266h2.063v.408H79.54v-3.701h2.663ZM21.195 8.659l25.852 6.334v22.195l-25.852-6.33v-22.2Zm-1.658-1.892v25.168l29.165 7.148V13.918L19.537 6.767Z" fill="#8E8F99"/><path d="M35.168 50.767 6 43.613V18.447l29.168 7.15v25.17Z" fill="#8E8F99"/><path d="m20.02 8.374 25.515 6.254-10.85 9.366-25.519-6.258L20.02 8.374Zm-.483-1.607L6 18.447l29.168 7.151 13.534-11.68-29.165-7.151ZM36.81 49.35l11.892-10.264-11.893-2.917v13.182Z" fill="#8E8F99"/></svg>
